X:582
T:Miss Ross
R:Slow Strathspey
C:Niel Gow
B:The Athole Collection
M:C
L:1/8
Q:1/4=140
K:B_
G|~F2 F>G F>GB>d|c>Bd>B c>B GG B<g|fd c2B:|
e|d<f f>g fg/a/ b>d|c>Bd>B c>BG>e|d<f f>g fg/a/ b>d|c>Be>d c2 B>e|
d<f f>g fg/a/ b>d|c>Bd>B c>B GBD>B F>G B<g|fd c2B||
